X:647
T:Billy Nicholson
C:Joe Buchanan's Scottish Tome - Page 195.2
I:195 2
Z:Carl Allison
R:Reel
L:1/8
M:4/4
K:G
D | "G"G/D/G/A/ BA/G/ | "D7"A/D/A/B/ cB/c/ | "G"d/g/g/e/ d/e/d/B/ | "A7"c/A/F/A/ "A7"G/F/E/D/ |
"G"G/D/G/A/ BA/G/ | "D7"A/D/A/B/ cB/c/ | "G"d/g/g/e/ "D7"d/e/d/c/ | "G"BG G :|
d | "G"d/g/g/f/ gd/g/ | "Am"e/a/a/g/ "D7"a>f | "G"g/a/g/e/ d/e/d/B/ | "D7"cA Ad |
"G"d/g/g/f/ gd/g/ |  "Am"e/a/a/^g/ "D7"a>f | "G"g/a/g/e/ "D7"d/e/d/c/ | "G"BG Gd |
"G"d/g/g/f/ gd/g/ | "Am"e/a/a/^g/ "D7"a>f | "G"g/a/g/e/ d/e/d/B/ | "D7"c/A/F/A/ G/F/E/D/ |
"G"G/D/G/A/ BA/G/ | "D"A/D/A/B/ cB/c/ | "G"d/g/g/e/ "D7"d/e/d/c/ | "G"BG G2 ||
